app/dist/common/images/lee-enterprises.svg

<svg height="18" width="18" xmlns="http://www.w3.org/2000/svg"><path d="m0 0h18v18h-18z" fill="#f0f3fa"/><path d="m10 3-2 2.25v3.75h-3v-3.48l-2 2.16v3.32h3v3h3.3l1.7-2h3l2-2h-3v-3h-3zm-2 6h3v3h-3z" fill="#1879be"/></svg>

<!-- by TradingView --><svg xmlns="http://www.w3.org/2000/svg" width="18" height="18"><path fill="#F0F3FA" d="M0 0h18v18H0z"/><path d="M10 3L8 5.25V9H5V5.52L3 7.68V11h3v3h3.3l1.7-2h3l2-2h-3V7h-3V3zM8 9h3v3H8V9z" fill="#1879BE"/></svg>
